X: 1290
T: Black Rock
B: australian traditional tunes wiki
M:4/4
L:1/8
R: Reel
Q: 1/4=100
K:A
V:1 
fe|"Bm"d2B2f2B2|d2f2f2ed|"A"c2A2e2A2|c2e2e2fe|"Bm"d2B2f2B2|d2f2f3g|"D"a2f2 "A"e2c2|"Bm"B4-B2:|
|:z2|"D"a3fd2f2|ab afd2f2|"A"e4e3f|e2d2B2A2|"D"a2f2d2f2|ab afd2f2|"A"e3fe2d2|"Bm"B4-B2:|
% abcbook-tune_id 6342d53a47dbb380a8c31dec


% abcbook-boost 0
% abcbook-tablature 
% abcbook-transpose 
% abcbook-lastupdated 1665324357602
% abcbook-soundfonts 
% abcbook-repeats 1
% NFF Book 2017

